svg/bone_off.svg

<svg xmlns="http://www.w3.org/2000/svg" viewBox="0 0 24 24"><path d="M22.1 21.5 2.4 1.7 1.1 3l4 4H5c-1.7 0-3 1.3-3 3 0 .8.3 1.5.8 2-.5.5-.8 1.2-.8 2 0 1.7 1.3 3 3 3s3-1.3 3-3c1.3-.1 2.6-.2 3.9-.2l8.9 8.9zM20 16.8l-6.7-6.7c.9 0 1.8-.1 2.7-.1 0-1.7 1.3-3 3-3s3 1.3 3 3c0 .8-.3 1.5-.8 2 .5.5.8 1.2.8 2 0 1.3-.8 2.4-2 2.8"/></svg>

<svg xmlns="http://www.w3.org/2000/svg" id="mdi-bone-off" viewBox="0 0 24 24"><path d="M22.1 21.5L2.4 1.7L1.1 3L5.1 7H5C3.3 7 2 8.3 2 10C2 10.8 2.3 11.5 2.8 12C2.3 12.5 2 13.2 2 14C2 15.7 3.3 17 5 17S8 15.7 8 14C9.3 13.9 10.6 13.8 11.9 13.8L20.8 22.7L22.1 21.5M20 16.8L13.3 10.1C14.2 10.1 15.1 10 16 10C16 8.3 17.3 7 19 7S22 8.3 22 10C22 10.8 21.7 11.5 21.2 12C21.7 12.5 22 13.2 22 14C22 15.3 21.2 16.4 20 16.8Z" /></svg>
